X: 1
T: Waltzing Through the Leaves
C: Graham Townsend 1966
R: waltz
Z: 2014 John Chambers <jc:trillian.mit.edu>
F: http://calfolk.ca/tunes1/waltzing-through-the-leaves.pdf
D: Graham Townsend, The Inimitable Graham Townsend
D: Patti Lamoureux: Cross Canada Fiddle
D: Calvin Vollrath: Live From Mon Oncle Edmond's
M: 3/4
L: 1/8
Q: 1/4=140
K: A
A/cd/ |\
"A"e2 e>e ee | "A"(3f/g/f/e e>f e>c | "E7"d2 c>B c>d | "A"c4 B/cd/ |\
"E7"cB EF GA | "E7"B2 A/cd/ f2 | "E7"e4 e2 | "A"e4 A/cd/ ||
"A"e2 e>e ee | "A"(3f/g/f/e e>f e>c | "E7"d2 c>B c>d | "A"c4 B/cd/ |\
"E7"cB EF GA | "E7"B3 A (3Bcd | "E7"f2 e2 E/GB/ | "A"A4 E>D ||
"A"C2 Ez zA | "D"D2 Fz zA | "A"E2 A>B A>B | "A"c3 (3ABc e |\
"A"B4 B>c | "E7"B4 A>B | "A"c2 A>B A>F | "A"EF ED CB, ||
"A"C2 Ez zA | "D"D2 Fz zA | "A"E2 A>B A>B | "A"c3 (3ABc e |\
"A"B4 B>c | "E7"B4 B>c | "E7"dB GA BG | "A"A2 z2 :|
